X: 102
T: MISS STEWART OF GARTH
C: M. McDONALD
R: Reel
B: Glen Collection p.10 #2
Z: 2011 John Chambers <jc:trillian.mit.edu>
M: C|
L: 1/8
V: 1 middle=B clef=treble
V: 2 middle=d clef=bass
%%score {1 | 2}
K: D
%
V: 1
|:\
D2DA FDdF | E2(Ee) GEeg | fdec dBAF | GBAF D/D/DD2 :|
abaf dfaf | gebe gebe | abaf dfaf | geaf d/d/dd2 |
abaf dfaf | gebe gebe | dfeg fbec | dBAF D/D/DD2 |]
%
V: 2
|:\
d2[a2f2] [a2d2][a2d2] | [c'2a2][c'2a2] [c'2a2e2][c'2a2e2] |\
[d'2a2d2][c'2a2e2] [d'2a2f2][d'2a2d2] | [g2d2][f2d2] [a2f2d2][a2f2d2] :|
d2[d'2a2] [d'2a2][d'2a2] | [c'2a2][c'2a2] [c'2a2][c'2a2] |\
d2[d'2a2] [d'2a2][d'2a2] | [c'2a2][c'2a2] [d'2a2d2][d'2a2d2] |
d2[d'2a2] [d'2a2][d'2a2] | [c'2a2][c'2a2] [c'2a2][c'2a2] |\
[d'2a2f2][c'2a2e2] [d'2a2d2][c'2a2e2] | [d'2a2f2][d'2a2d2] [a2f2d2][a2f2d2] |]
